X:1
T:Title
%%score 1 { 2 | 3 }
L:1/8
Q:1/4=110
M:9/8
K:F
V:1 treble nm="Grand Piano, Soprano"
V:2 treble nm="Choir Pad, He Is Coming Again (Bilhorn)"
V:3 bass 
V:1
 [FA][GB][_A=B] [=Ac]3 [FA]3 | [DG][DF][B,D] [A,C]3 [A,F]3 | [CF][CG][FA] [Fc]3 [FA]2 [FA] | %3
w: By~Peter~Philip~Bilhorn * * * *|||
 [FA][FG]F [EG]6 | [FA][GB][_A=B] [=Ac]3 [FA]3 | [DG][DF][B,D] [A,C]3 [A,F]3 | %6
w: |||
 [DB][Dc][Fd] [Fc][FA][CF] [FA]3 | [EG]3 [CF]6 | [Ac][Bd][Be] [Af]3 [Ac]3 | %9
w: |||
 [df][ce][Bd] [Ac]3 [FA]3 | [Ac][Bd][Ac] [ce]3 [Bd]3 | [Bd][Ac][GB] [FA]6 | %12
w: |||
 [FA][GB][_A=B] [=Ac]3 [Ac]3 | [Ac][Bd][Be] [Af]3 [Ac]3 | [FB][Fc][Bd] [Ac]3 [FA]3 | %15
w: |||
 [FA]<[FA][EG] [CF]6- | [CF]3 z3 z3 |] %17
w: ||
V:2
 C2 C C3 C3 | B,[K:bass]B,F, F,3 F,3 | A,B,[K:treble]C A,3 C2 C | CB,A, C6 | C2 C C3 C3 | %5
 B,B,F, F,3 A,3 | B,B,B, A,CA, C3 | B,3 A,6 | C2 C C3 C3 | B,B,B, C3 C3 | C2 C C3 C3 | C2 C C6 | %12
 C2 C C3 C3 | CCC C3 C3 | DEF F3 C3 | C<CB, A,6- | A,3 z3 z3 |] %17
V:3
 F,2 F, F,3 F,3 | B,,B,,B,, F,,3 F,,3 | F,F,F, F,3 F,2 F, | F,F,F, C,6 | F,2 F, F,3 F,3 | %5
 B,,B,,B,, z3 F,3 | B,,B,,B,, C,C,C, C,3 | C,3 F,6 | F,2 F, F,3 F,3 | z3 F,3 F,3 | F,2 F, C,3 C,3 | %11
 C,2 C, F,6 | F,2 F, F,3 F,3 | F,F,F, F,3 F,3 | B,,A,,G,, C,3 C,3 | C,<C,C, F,6- | F,3 z3 z3 |] %17

